vendor/shopware/storefront/Resources/app/storefront/dist/assets/icon/default/laptop.svg

<svg xmlns="http://www.w3.org/2000/svg" width="24" height="24" viewBox="0 0 24 24">
  <path fill="#758CA3" fill-rule="evenodd" d="M21.7899108,16.105081 C23.0635323,16.4517876 24,17.6165319 24,19 C24,20.6568542 22.6568542,22 21,22 L3,22 C1.34314575,22 2.02906125e-16,20.6568542 0,19 C-1.69425975e-16,17.6165319 0.936467729,16.4517876 2.21008923,16.105081 C2.07451355,15.7630918 2,15.3902477 2,15 L2,5 C2,3.34314575 3.34314575,2 5,2 L19,2 C20.6568542,2 22,3.34314575 22,5 L22,15 C22,15.3902477 21.9254865,15.7630918 21.7899108,16.105081 Z M19,16 C19.5522847,16 20,15.5522847 20,15 L20,5 C20,4.44771525 19.5522847,4 19,4 L5,4 C4.44771525,4 4,4.44771525 4,5 L4,15 C4,15.5522847 4.44771525,16 5,16 L19,16 Z M3,18 C2.44771525,18 2,18.4477153 2,19 C2,19.5522847 2.44771525,20 3,20 L21,20 C21.5522847,20 22,19.5522847 22,19 C22,18.4477153 21.5522847,18 21,18 L3,18 Z"/>
</svg>

<svg xmlns="http://www.w3.org/2000/svg" width="24" height="24" viewBox="0 0 24 24"><path fill="#758CA3" fill-rule="evenodd" d="M21.79 16.105C23.0634 16.4519 24 17.6166 24 19c0 1.6569-1.3431 3-3 3H3c-1.6569 0-3-1.3431-3-3 0-1.3835.9365-2.5482 2.21-2.895A2.992 2.992 0 0 1 2 15V5c0-1.6569 1.3431-3 3-3h14c1.6569 0 3 1.3431 3 3v10c0 .3902-.0745.763-.21 1.105zM19 16c.5523 0 1-.4477 1-1V5c0-.5523-.4477-1-1-1H5c-.5523 0-1 .4477-1 1v10c0 .5523.4477 1 1 1h14zM3 18c-.5523 0-1 .4477-1 1s.4477 1 1 1h18c.5523 0 1-.4477 1-1s-.4477-1-1-1H3z"/></svg>
